assets/icons/chat/away-filled.svg

<?xml version="1.0" encoding="UTF-8" standalone="no"?>
<svg
   viewBox="0 0 24 24"
   version="1.1"
   id="svg10"
   sodipodi:docname="away-filled.svg"
   inkscape:version="1.2 (1:1.2.1+202207142221+cd75a1ee6d)"
   width="24"
   height="24"
   xmlns:inkscape="http://www.inkscape.org/namespaces/inkscape"
   xmlns:sodipodi="http://sodipodi.sourceforge.net/DTD/sodipodi-0.dtd"
   xmlns="http://www.w3.org/2000/svg"
   xmlns:svg="http://www.w3.org/2000/svg"
   xmlns:rdf="http://www.w3.org/1999/02/22-rdf-syntax-ns#"
   xmlns:cc="http://creativecommons.org/ns#"
   xmlns:dc="http://purl.org/dc/elements/1.1/">
  <metadata
     id="metadata16">
    <rdf:RDF>
      <cc:Work
         rdf:about="">
        <dc:format>image/svg+xml</dc:format>
        <dc:type
           rdf:resource="http://purl.org/dc/dcmitype/StillImage" />
      </cc:Work>
    </rdf:RDF>
  </metadata>
  <defs
     id="defs14" />
  <sodipodi:namedview
     pagecolor="#ffffff"
     bordercolor="#666666"
     borderopacity="1"
     objecttolerance="10"
     gridtolerance="10"
     guidetolerance="10"
     inkscape:pageopacity="0"
     inkscape:pageshadow="2"
     inkscape:window-width="1920"
     inkscape:window-height="1016"
     id="namedview12"
     showgrid="true"
     inkscape:zoom="22.103992"
     inkscape:cx="6.8765859"
     inkscape:cy="14.182958"
     inkscape:window-x="0"
     inkscape:window-y="0"
     inkscape:window-maximized="1"
     inkscape:current-layer="svg10"
     inkscape:pagecheckerboard="0"
     inkscape:showpageshadow="2"
     inkscape:deskcolor="#d1d1d1">
    <inkscape:grid
       type="xygrid"
       id="grid841" />
    <inkscape:grid
       type="xygrid"
       id="grid829"
       dotted="true"
       spacingx="0.5"
       spacingy="0.5"
       empspacing="10" />
  </sodipodi:namedview>
  <path
     id="path864"
     style="color:#000000;fill:#808080;fill-opacity:1"
     d="M 4.7871094 3 C 4.110165 3.00559 3.5365061 3.0481532 3.0273438 3.3027344 C 2.687902 3.4724552 2.397338 3.7651688 2.2304688 4.140625 C 2.0635991 4.5160812 2 4.9583349 2 5.5 L 2 15.5 C 2 16.041664 2.0635991 16.483918 2.2304688 16.859375 C 2.397338 17.234832 2.687902 17.527544 3.0273438 17.697266 C 3.706227 18.036706 4.500003 18 5.5 18 L 12.269531 18 L 15.5 21.767578 L 18.757812 17.96875 C 19.616094 17.97155 20.364547 18.001319 20.972656 17.697266 C 21.312099 17.527544 21.602661 17.234832 21.769531 16.859375 C 21.936401 16.483918 22 16.041664 22 15.5 L 22 5.5 C 22 4.9583349 21.9364 4.5160812 21.769531 4.140625 C 21.602661 3.7651688 21.312099 3.4724552 20.972656 3.3027344 C 20.293773 2.9632926 19.499997 3 18.5 3 L 5.5 3 C 5.2500007 3 5.0127574 2.99814 4.7871094 3 z M 13 7.5 C 13.926681 7.9243226 14.871209 8.3987964 15.832031 8.921875 C 16.766423 9.43661 17.683821 9.9794247 18.585938 10.548828 C 17.701932 11.096303 16.785537 11.63267 15.832031 12.158203 C 14.9021 12.666137 13.956989 13.144923 12.998047 13.595703 L 12.998047 11 L 6 11 L 6 10 L 13 10 L 13 7.5 z " />
</svg>

<svg width="24" height="24" xmlns="http://www.w3.org/2000/svg"><path style="color:#000;fill:gray;fill-opacity:1" d="M4.787 3c-.677.006-1.25.048-1.76.303-.34.17-.63.462-.797.838C2.064 4.516 2 4.958 2 5.5v10c0 .542.064.984.23 1.36.167.375.458.668.797.837.68.34 1.473.303 2.473.303h6.77l3.23 3.768 3.258-3.8c.858.004 1.607.033 2.215-.27.34-.17.63-.463.797-.839.166-.375.23-.817.23-1.359v-10c0-.542-.064-.984-.23-1.36a1.72 1.72 0 0 0-.797-.837C20.293 2.963 19.5 3 18.5 3h-13c-.25 0-.487-.002-.713 0zM13 7.5a45.72 45.72 0 0 1 2.832 1.422 53.73 53.73 0 0 1 2.754 1.627c-.884.547-1.8 1.084-2.754 1.61a53.38 53.38 0 0 1-2.834 1.437V11H6v-1h7V7.5z"/></svg>
